Adwaita++-Light/panel/22/indicator-workspaces-8.svg

<svg height="22" width="22" xmlns="http://www.w3.org/2000/svg">
  <path d="m5 3c-1.108 0-2 .892-2 2v9c0 1.108.892 2 2 2h4l-2.2890625 2c-1.0374129.9062-.9473684 1 0 1h7.5781245c.947369 0 .947368 0 0-1l-2.289062-2h4c1.108 0 2-.892 2-2v-9c0-1.108-.892-2-2-2zm0 2h11v9h-11zm3 1v1 3 3h1 4v-1-2-1-3h-4zm1 1h3v2h-3zm0 3h3v2h-3z" fill="#444"/>
</svg>

<svg xmlns="http://www.w3.org/2000/svg" width="22" height="22" version="1.1">
 <defs>
  <style id="current-color-scheme" type="text/css">
   .ColorScheme-Text { color:#444444; } .ColorScheme-Highlight { color:#4285f4; }
  </style>
 </defs>
 <path style="fill:currentColor" class="ColorScheme-Text" d="M 5 3 C 3.892 3 3 3.892 3 5 L 3 14 C 3 15.108 3.892 16 5 16 L 9 16 L 6.7109375 18 C 5.6735246 18.9062 5.7635691 19 6.7109375 19 L 14.289062 19 C 15.236431 19 15.23643 19 14.289062 18 L 12 16 L 16 16 C 17.108 16 18 15.108 18 14 L 18 5 C 18 3.892 17.108 3 16 3 L 5 3 z M 5 5 L 16 5 L 16 14 L 5 14 L 5 5 z M 8 6 L 8 7 L 8 10 L 8 13 L 9 13 L 13 13 L 13 12 L 13 10 L 13 9 L 13 6 L 9 6 L 8 6 z M 9 7 L 12 7 L 12 9 L 9 9 L 9 7 z M 9 10 L 12 10 L 12 12 L 9 12 L 9 10 z"/>
</svg>
